backend/papyrus-web-graphics/src/main/resources/icons-override/full/obj16/Pseudostate_choice.svg

<?xml version="1.0" encoding="UTF-8" standalone="no"?>
<svg
   width="18"
   height="16"
   viewBox="0 0 4.7624999 4.2333332"
   version="1.1"
   id="svg8"
   inkscape:version="1.3 (0e150ed, 2023-07-21)"
   sodipodi:docname="Psuedostate_choice.svg"
   xml:space="preserve"
   xmlns:inkscape="http://www.inkscape.org/namespaces/inkscape"
   xmlns:sodipodi="http://sodipodi.sourceforge.net/DTD/sodipodi-0.dtd"
   xmlns:xlink="http://www.w3.org/1999/xlink"
   xmlns="http://www.w3.org/2000/svg"
   xmlns:svg="http://www.w3.org/2000/svg"
   xmlns:rdf="http://www.w3.org/1999/02/22-rdf-syntax-ns#"
   xmlns:cc="http://creativecommons.org/ns#"
   xmlns:dc="http://purl.org/dc/elements/1.1/"><metadata
     id="metadata24"><rdf:RDF><cc:Work
         rdf:about=""><dc:format>image/svg+xml</dc:format><dc:type
           rdf:resource="http://purl.org/dc/dcmitype/StillImage" /></cc:Work></rdf:RDF></metadata><defs
     id="defs2"><linearGradient
       id="linearGradient1"
       inkscape:collect="always"><stop
         style="stop-color:#4d81b4;stop-opacity:1;"
         offset="0"
         id="stop1" /><stop
         style="stop-color:#ffffff;stop-opacity:1;"
         offset="1"
         id="stop2" /></linearGradient><linearGradient
       inkscape:collect="always"
       xlink:href="#linearGradient1"
       id="linearGradient2"
       x1="3.3686705"
       y1="0.82662368"
       x2="2.1070106"
       y2="-0.41098207"
       gradientUnits="userSpaceOnUse" /></defs><sodipodi:namedview
     id="base"
     pagecolor="#ffffff"
     bordercolor="#666666"
     borderopacity="1.0"
     inkscape:pageopacity="0"
     inkscape:pageshadow="2"
     inkscape:zoom="22.321944"
     inkscape:cx="2.0607524"
     inkscape:cy="15.254048"
     inkscape:document-units="mm"
     inkscape:current-layer="g882"
     inkscape:document-rotation="0"
     showgrid="false"
     inkscape:pagecheckerboard="false"
     inkscape:window-width="2560"
     inkscape:window-height="1312"
     inkscape:window-x="0"
     inkscape:window-y="25"
     inkscape:window-maximized="0"
     units="px"
     inkscape:showpageshadow="2"
     inkscape:deskcolor="#d1d1d1" /><g
     id="g21"><g
       id="g882"><rect
         style="fill:#4b7eb0;fill-opacity:0;stroke:none;stroke-width:0.0756102;stroke-miterlimit:4;stroke-dasharray:none;stroke-opacity:0.827451"
         id="rect840"
         width="2.277241"
         height="1.5517111"
         x="1.2306415"
         y="1.4287663" /><g
         id="g913-3"
         style="stroke:#2d6296;stroke-opacity:1"
         transform="matrix(0,0.85520025,-1.0175421,0,3.5474578,-4.2396731)"><g
           id="g1"
           transform="translate(0,-0.37690227)"><g
             id="g3"
             transform="translate(0.08315989,0.01164872)"><path
               style="fill:none;stroke:#2d6296;stroke-width:0.214398;stroke-linecap:round;stroke-linejoin:miter;stroke-miterlimit:3.9;stroke-dasharray:none;stroke-dashoffset:0.415627;stroke-opacity:1"
               d="M 5.9127312,2.2477259 H 4.957263"
               id="path891-1-8"
               sodipodi:nodetypes="cc" /><path
               style="fill:none;stroke:#2d6296;stroke-width:0.214398;stroke-linecap:round;stroke-linejoin:round;stroke-miterlimit:4;stroke-dasharray:none;stroke-opacity:1"
               d="M 5.9669395,2.2490874 5.3292102,1.718726"
               id="path891-3-6-7-3-0"
               sodipodi:nodetypes="cc" /><path
               style="fill:none;stroke:#2d6296;stroke-width:0.214398;stroke-linecap:round;stroke-linejoin:round;stroke-miterlimit:4;stroke-dasharray:none;stroke-opacity:1"
               d="M 5.9530795,2.2607361 5.3153503,2.7910975"
               id="path891-3-6-7-3-2-2"
               sodipodi:nodetypes="cc" /></g></g></g><g
         id="g913-3-0"
         style="stroke:#2d6296;stroke-opacity:1"
         transform="matrix(0,0.85520025,-1.0175421,0,3.56375,-1.3756807)"><g
           id="g2"
           transform="translate(0,-0.37690227)"><path
             style="fill:none;stroke:#2d6296;stroke-width:0.214398;stroke-linecap:round;stroke-linejoin:miter;stroke-miterlimit:3.9;stroke-dasharray:none;stroke-dashoffset:0.415627;stroke-opacity:1"
             d="M 6.3056321,2.2536006 H 4.9368915"
             id="path891-1-8-5"
             sodipodi:nodetypes="cc" /><path
             style="fill:none;stroke:#2d6296;stroke-width:0.214398;stroke-linecap:round;stroke-linejoin:miter;stroke-miterlimit:3.9;stroke-dasharray:none;stroke-dashoffset:0.415627;stroke-opacity:1"
             d="M 6.2421812,0.29341153 H 4.1199539"
             id="path891-1-8-5-7"
             sodipodi:nodetypes="cc" /><path
             style="fill:none;stroke:#2d6296;stroke-width:0.214398;stroke-linecap:round;stroke-linejoin:round;stroke-miterlimit:4;stroke-dasharray:none;stroke-opacity:1"
             d="M 6.4538169,2.244236 5.8160876,1.7138746"
             id="path891-3-6-7-3-0-2"
             sodipodi:nodetypes="cc" /><path
             style="fill:none;stroke:#2d6296;stroke-width:0.214398;stroke-linecap:round;stroke-linejoin:round;stroke-miterlimit:4;stroke-dasharray:none;stroke-opacity:1"
             d="M 6.4522728,0.28801742 5.8145435,-0.24234398"
             id="path891-3-6-7-3-0-2-2"
             sodipodi:nodetypes="cc" /><path
             style="fill:none;stroke:#2d6296;stroke-width:0.214398;stroke-linecap:round;stroke-linejoin:round;stroke-miterlimit:4;stroke-dasharray:none;stroke-opacity:1"
             d="M 6.4538169,2.2589837 5.8160877,2.7893451"
             id="path891-3-6-7-3-2-2-2"
             sodipodi:nodetypes="cc" /><path
             style="fill:none;stroke:#2d6296;stroke-width:0.214398;stroke-linecap:round;stroke-linejoin:round;stroke-miterlimit:4;stroke-dasharray:none;stroke-opacity:1"
             d="M 6.4545522,0.30804728 5.816823,0.83840879"
             id="path891-3-6-7-3-2-2-2-5"
             sodipodi:nodetypes="cc" /><path
             style="fill:none;stroke:#2d6296;stroke-width:0.214398;stroke-linecap:round;stroke-linejoin:miter;stroke-miterlimit:3.9;stroke-dasharray:none;stroke-dashoffset:0.415627;stroke-opacity:1"
             d="M 4.1197293,1.6527254 V 0.29475937"
             id="path891-1-8-5-7-9"
             sodipodi:nodetypes="cc" /></g></g><path
         id="rect873"
         style="fill:url(#linearGradient2);fill-opacity:1;stroke:#2d6296;stroke-width:0.168669;stroke-linecap:round;stroke-miterlimit:4;stroke-dasharray:none;stroke-dashoffset:0.300095;stroke-opacity:1"
         sodipodi:type="inkscape:offset"
         inkscape:radius="0"
         inkscape:original="M 1.8710938 -0.63476562 L 1.8710938 1.0742188 L 3.5800781 1.0742188 L 3.5800781 -0.63476562 L 1.8710938 -0.63476562 z "
         d="M 1.8710938,-0.63476562 V 1.0742188 h 1.7089843 v -1.70898442 z"
         transform="matrix(0.63210169,0.62568033,-0.61341679,0.64400951,0.06559149,0.31427167)" /></g></g></svg>

<svg xmlns="http://www.w3.org/2000/svg" xmlns:xlink="http://www.w3.org/1999/xlink" xml:space="preserve" width="16" height="16">
    <defs>
        <linearGradient id="a">
            <stop offset="0" style="stop-color:#4d81b4;stop-opacity:1"/>
            <stop offset="1" style="stop-color:#fff;stop-opacity:1"/>
        </linearGradient>
        <linearGradient xlink:href="#a" id="b" x1="3.369" x2="2.107" y1=".827" y2="-.411" gradientUnits="userSpaceOnUse"/>
    </defs>
    <path fill="none" d="M1.231 1.429h2.277v1.552H1.231z" style="fill:#4b7eb0;fill-opacity:0;stroke:none;stroke-width:.0756102;stroke-miterlimit:4;stroke-dasharray:none;stroke-opacity:.827451" transform="translate(-.952 .057)scale(3.73987)"/>
    <g style="stroke:#2d6296;stroke-opacity:1">
        <path d="M5.913 2.248h-.956" style="fill:none;stroke:#2d6296;stroke-width:.214398;stroke-linecap:round;stroke-linejoin:miter;stroke-miterlimit:3.9;stroke-dasharray:none;stroke-dashoffset:.415627;stroke-opacity:1" transform="matrix(0 3.19834 -3.80548 0 13.705 -15.533)"/>
        <path d="m5.967 2.25-.638-.531m.624.541-.638.531" style="fill:none;stroke:#2d6296;stroke-width:.214398;stroke-linecap:round;stroke-linejoin:round;stroke-miterlimit:4;stroke-dasharray:none;stroke-opacity:1" transform="matrix(0 3.19834 -3.80548 0 13.705 -15.533)"/>
    </g>
    <g style="stroke:#2d6296;stroke-opacity:1">
        <path d="M6.306 2.254h-1.37M6.242.293H4.12" style="fill:none;stroke:#2d6296;stroke-width:.214398;stroke-linecap:round;stroke-linejoin:miter;stroke-miterlimit:3.9;stroke-dasharray:none;stroke-dashoffset:.415627;stroke-opacity:1" transform="matrix(0 3.19834 -3.80548 0 13.81 -5.088)"/>
        <path d="m6.454 2.244-.638-.53M6.452.288l-.637-.53m.639 2.501-.638.53M6.455.308l-.638.53" style="fill:none;stroke:#2d6296;stroke-width:.214398;stroke-linecap:round;stroke-linejoin:round;stroke-miterlimit:4;stroke-dasharray:none;stroke-opacity:1" transform="matrix(0 3.19834 -3.80548 0 13.81 -5.088)"/>
        <path d="M4.12 1.653V.295" style="fill:none;stroke:#2d6296;stroke-width:.214398;stroke-linecap:round;stroke-linejoin:miter;stroke-miterlimit:3.9;stroke-dasharray:none;stroke-dashoffset:.415627;stroke-opacity:1" transform="matrix(0 3.19834 -3.80548 0 13.81 -5.088)"/>
    </g>
    <path d="M1.871-.635v1.71h1.71v-1.71z" style="fill:url(#b);fill-opacity:1;stroke:#2d6296;stroke-width:.168669;stroke-linecap:round;stroke-miterlimit:4;stroke-dasharray:none;stroke-dashoffset:.300095;stroke-opacity:1" transform="matrix(2.36398 2.33996 -2.2941 2.40851 -.707 1.232)"/>
</svg>
